proprietary/assets/icons/gebruiksvoorwerpen/schild-met-vinkje-erop.svg

<svg height="64" viewBox="0 0 64 64" width="64" xmlns="http://www.w3.org/2000/svg"><path d="m0 0h64v64h-64z" fill="none"/><path d="m52.8323 8.6146c-2.481-1.112-9.0376-3.4117-20.8323-3.4117s-18.3513 2.2997-20.8323 3.4117c-.7157.3208-1.1677 1.035-1.1677 1.8194v28.9537c0 3.3937 1.4445 6.6252 3.9529 8.911 6.6667 6.0748 14.1705 9.3929 16.9422 10.4897.7131.2822 1.4967.2822 2.2098 0 2.7717-1.0968 10.2755-4.4149 16.9422-10.4897 2.5084-2.2858 3.9529-5.5173 3.9529-8.911v-28.9537c0-.7844-.452-1.4986-1.1677-1.8194zm-8.3882 11.7733-12.3217 20.3949c-.3432.5646-.9563.9085-1.6155.9085-.0028 0-.004 0-.0068 0-.662-.0021-1.275-.3508-1.6155-.9187l-8.065-13.4597c-.4768-.7968-.3052-1.8224.4073-2.4197.7097-.5981 1.7489-.5899 2.4532.019l6.6579 5.7672 11.0807-12.5335c.6511-.7281 1.7489-.8404 2.5363-.2587.7847.5815.9971 1.6658.4891 2.5007z"/></svg>

<?xml version="1.0" encoding="utf-8"?>
<!-- Generator: Adobe Illustrator 19.1.0, SVG Export Plug-In . SVG Version: 6.00 Build 0)  -->
<svg version="1.2" baseProfile="tiny" xmlns="http://www.w3.org/2000/svg" xmlns:xlink="http://www.w3.org/1999/xlink" x="0px"
	 y="0px" width="64px" height="64px" viewBox="0 0 64 64" xml:space="preserve">
<g id="Box">
	<rect fill="none" width="64" height="64"/>
</g>
<g id="Icon">
	<path d="M52.8323,8.6146C50.3513,7.5026,43.7947,5.2029,32,5.2029S13.6487,7.5026,11.1677,8.6146
		C10.452,8.9354,10,9.6496,10,10.434v28.9537c0,3.3937,1.4445,6.6252,3.9529,8.911c6.6667,6.0748,14.1705,9.3929,16.9422,10.4897
		c0.7131,0.2822,1.4967,0.2822,2.2098,0c2.7717-1.0968,10.2755-4.4149,16.9422-10.4897C52.5555,46.0129,54,42.7814,54,39.3877
		V10.434C54,9.6496,53.548,8.9354,52.8323,8.6146z M44.4441,20.3879L32.1224,40.7828c-0.3432,0.5646-0.9563,0.9085-1.6155,0.9085
		c-0.0028,0-0.004,0-0.0068,0c-0.662-0.0021-1.275-0.3508-1.6155-0.9187l-8.065-13.4597c-0.4768-0.7968-0.3052-1.8224,0.4073-2.4197
		c0.7097-0.5981,1.7489-0.5899,2.4532,0.019l6.6579,5.7672l11.0807-12.5335c0.6511-0.7281,1.7489-0.8404,2.5363-0.2587
		C44.7397,18.4687,44.9521,19.553,44.4441,20.3879z"/>
</g>
</svg>
